public/assets/img/svg/embed/change-canvas.svg

<?xml version="1.0" encoding="UTF-8" standalone="no"?>
<svg width="47px" height="39px" viewBox="0 0 47 39" version="1.1" xmlns="http://www.w3.org/2000/svg" xmlns:xlink="http://www.w3.org/1999/xlink" xmlns:sketch="http://www.bohemiancoding.com/sketch/ns">
    <!-- Generator: Sketch 3.2.2 (9983) - http://www.bohemiancoding.com/sketch -->
    <title>Fill 135</title>
    <desc>Created with Sketch.</desc>
    <defs></defs>
    <g id="UI" stroke="none" stroke-width="1" fill="none" fill-rule="evenodd" sketch:type="MSPage">
        <g id="Toolbox-Expanded" sketch:type="MSArtboardGroup" transform="translate(-279.000000, -207.000000)" stroke="#7ED321" fill="#7ED321">
            <g id="Fill-135-+-Change-canvas" sketch:type="MSLayerGroup" transform="translate(227.000000, 208.000000)">
                <path d="M58.1665265,28.2412884 L54.6702133,28.2412884 L54.6702133,1.70094088 L90.2613451,1.70094088 L90.2613451,6.14606638 C90.2613451,6.61552607 90.6365863,6.99653682 91.0964517,6.99653682 C91.5585441,6.99653682 91.9326718,6.61552607 91.9326718,6.14606638 L91.9326718,0.85047044 C91.9326718,0.381010757 91.5585441,0 91.0964517,0 L53.8351066,0 C53.3741278,0 53,0.381010757 53,0.85047044 L53,29.0917589 C53,29.5612185 53.3741278,29.9422293 53.8351066,29.9422293 L58.1665265,29.9422293 C58.6286188,29.9422293 59.0027466,29.5612185 59.0027466,29.0917589 C59.0027466,28.6222992 58.6286188,28.2412884 58.1665265,28.2412884 L58.1665265,28.2412884 Z M97.1648934,7.05890466 L59.8968674,7.05890466 C59.4358886,7.05890466 59.0617608,7.43991541 59.0617608,7.9093751 L59.0617608,36.1495296 C59.0617608,36.6201232 59.4358886,37 59.8968674,37 L97.1648934,37 C97.6258722,37 98,36.6201232 98,36.1495296 L98,7.9093751 C98,7.43991541 97.6258722,7.05890466 97.1648934,7.05890466 L97.1648934,7.05890466 Z M60.7319741,8.75984554 L96.3309002,8.75984554 L96.3309002,35.2990591 L60.7319741,35.2990591 L60.7319741,8.75984554 Z" id="Fill-135" sketch:type="MSShapeGroup"></path>
            </g>
        </g>
    </g>
</svg>

<?xml version="1.0" encoding="utf-8"?>
<!-- Generator: Adobe Illustrator 17.0.0, SVG Export Plug-In . SVG Version: 6.00 Build 0)  -->
<!DOCTYPE svg PUBLIC "-//W3C//DTD SVG 1.1//EN" "http://www.w3.org/Graphics/SVG/1.1/DTD/svg11.dtd">
<svg version="1.1" id="Layer_1" xmlns="http://www.w3.org/2000/svg" xmlns:xlink="http://www.w3.org/1999/xlink" x="0px" y="0px"
	 width="48px" height="48px" viewBox="51.5 -5.501 48 48" enable-background="new 51.5 -5.501 48 48" xml:space="preserve">
<path d="M58.167,28.241H54.67V1.701h35.591v4.445c0,0.469,0.375,0.85,0.835,0.85c0.462,0,0.836-0.381,0.836-0.85V0.85
	c0-0.469-0.374-0.85-0.836-0.85H53.835C53.374,0,53,0.381,53,0.85v28.241c0,0.469,0.374,0.85,0.835,0.85h4.331
	c0.462,0,0.836-0.381,0.836-0.85S58.629,28.241,58.167,28.241L58.167,28.241z M97.165,7.059H59.897c-0.461,0-0.835,0.381-0.835,0.85
	v28.24c0,0.471,0.374,0.85,0.835,0.85h37.268C97.626,37,98,36.62,98,36.15V7.909C98,7.44,97.626,7.059,97.165,7.059L97.165,7.059z
	 M60.732,8.76h35.599v26.539H60.732V8.76z"/>
</svg>
